static/light.svg

<svg width="16" height="20" viewBox="0 0 16 20" fill="none" xmlns="http://www.w3.org/2000/svg">
<path d="M3.78027 17.684C3.78027 18.9627 4.88259 19.9999 6.24165 19.9999H9.68757C11.0466 19.9999 12.149 18.9627 12.149 17.684V16.4162C12.149 16.1636 11.9315 15.959 11.663 15.959H4.26618C3.99777 15.959 3.78027 16.1636 3.78027 16.4162V17.684Z" fill="url(#paint0_linear_0_3928)"/>
<path d="M7.99947 0C3.58173 0 0 3.37012 0 7.52687C0 9.61922 0.970758 10.9739 3.0502 13.8129C3.12658 13.9167 3.21146 14.0146 3.28042 14.1214C3.54778 14.5307 4.02626 14.7752 4.53657 14.7752H7.16876V11.7315C6.28393 11.454 5.60812 10.7203 5.47444 9.82786C5.45428 9.69309 5.44685 9.56032 5.45004 9.43055C5.46065 9.05121 5.79909 8.75273 6.20224 8.75273H6.30409C6.72741 8.75273 7.04993 9.08415 7.04569 9.48246C7.04569 9.48545 7.04569 9.48845 7.04569 9.49144C7.04569 9.9746 7.469 10.3649 7.98568 10.3519C8.47689 10.339 8.88111 9.94266 8.87368 9.47946C8.87156 9.35169 8.83761 9.23589 9.16756 8.9444C9.30867 8.81962 9.49645 8.75273 9.6906 8.75273C10.1171 8.75273 10.4683 9.08116 10.4693 9.48346V9.49244C10.4693 10.5366 9.74896 11.4221 8.74955 11.7335V14.7762H11.3499C11.8655 14.7762 12.3536 14.5307 12.6145 14.1124C12.692 13.9876 12.779 13.8678 12.8755 13.754C15.2372 10.5216 16 9.50243 16 7.52787C15.9989 3.37012 12.4172 0 7.99947 0Z" fill="url(#paint1_linear_0_3928)"/>
<defs>
<linearGradient id="paint0_linear_0_3928" x1="11.3644" y1="19.1917" x2="9.28942" y2="14.3958" gradientUnits="userSpaceOnUse">
<stop stop-color="#FFCC17"/>
<stop offset="1" stop-color="#FFE37F"/>
</linearGradient>
<linearGradient id="paint1_linear_0_3928" x1="14.5" y1="11.821" x2="4.27408" y2="-0.537095" gradientUnits="userSpaceOnUse">
<stop stop-color="#FFCC17"/>
<stop offset="1" stop-color="#FFE37F"/>
</linearGradient>
</defs>
</svg>

<svg xmlns="http://www.w3.org/2000/svg" width="16" height="20" fill="none"><path fill="url(#a)" d="M3.78 17.684C3.78 18.963 4.883 20 6.242 20h3.446c1.359 0 2.461-1.037 2.461-2.316v-1.268c0-.252-.217-.457-.486-.457H4.266c-.268 0-.486.205-.486.457v1.268Z"/><path fill="url(#b)" d="M8 0C3.581 0 0 3.37 0 7.527c0 2.092.97 3.447 3.05 6.286.077.104.161.202.23.308.268.41.746.654 1.257.654h2.632v-3.043c-.885-.278-1.56-1.012-1.695-1.904a2.3 2.3 0 0 1-.024-.397c.01-.38.35-.678.752-.678h.102c.423 0 .746.331.742.73v.008c0 .484.423.874.94.86.49-.012.895-.408.888-.872-.002-.127-.036-.243.294-.535a.79.79 0 0 1 .523-.191c.426 0 .777.328.778.73v.01c0 1.044-.72 1.93-1.72 2.24v3.043h2.6c.517 0 1.005-.245 1.265-.664.078-.124.165-.244.261-.358C15.238 10.522 16 9.502 16 7.528 15.999 3.37 12.417 0 8 0Z"/><defs><linearGradient id="a" x1="11.364" x2="9.289" y1="19.192" y2="14.396" gradientUnits="userSpaceOnUse"><stop stop-color="#FFCC17"/><stop offset="1" stop-color="#FFE37F"/></linearGradient><linearGradient id="b" x1="14.5" x2="4.274" y1="11.821" y2="-.537" gradientUnits="userSpaceOnUse"><stop stop-color="#FFCC17"/><stop offset="1" stop-color="#FFE37F"/></linearGradient></defs></svg>
